X:140
T:Slieve Russell
Z: id:dc-jig-118
M:6/8
L:1/8
K:A Dorian
eAA Bcd|eaf ged|edB cBA|BGG Bcd|!
eAA Bcd|eaf ged|edB cBA|BAG A3:|!
eaa efg|agf ged|eaa efg|fed e3|!
eaa efg|agf ged|edB cBA|BAG A3:|!

